<?xml version="1.0" encoding="UTF-8"?>
<map version="1.10" tiledversion="1.11.2" class="level1" orientation="orthogonal" renderorder="right-down" width="20" height="10" tilewidth="32" tileheight="32" infinite="0" nextlayerid="9" nextobjectid="56">
 <editorsettings>
  <export target="level_1.lua" format="lua"/>
 </editorsettings>
 <tileset firstgid="1" name="test_tile_map" tilewidth="32" tileheight="32" tilecount="100" columns="10">
  <image source="test_tile_map.png" width="320" height="320"/>
 </tileset>
 <tileset firstgid="101" name="wood" tilewidth="32" tileheight="32" tilecount="100" columns="10">
  <image source="wood.png" width="320" height="320"/>
 </tileset>
 <tileset firstgid="201" name="tile_map" tilewidth="32" tileheight="32" tilecount="100" columns="10">
  <image source="tile_map.png" width="320" height="320"/>
 </tileset>
 <layer id="1" name="Tile Layer 1" width="20" height="10">
  <data encoding="csv">
0,0,0,0,0,0,0,0,0,0,0,0,0,0,0,0,0,0,0,0,
0,0,0,0,0,0,0,0,0,0,0,0,0,0,0,0,0,0,0,0,
0,0,0,0,0,0,0,0,0,0,0,0,0,0,0,0,0,0,0,0,
0,0,0,0,0,0,0,0,0,0,0,0,0,0,0,0,0,0,0,0,
0,0,0,0,0,0,0,0,0,0,0,0,0,0,0,0,0,0,0,0,
0,0,0,0,0,0,0,0,0,0,0,0,0,0,0,0,0,0,0,0,
0,0,0,0,0,0,0,0,0,0,0,0,0,0,0,0,0,0,0,0,
0,0,0,0,0,0,0,0,0,0,0,0,0,0,0,0,0,0,0,0,
0,0,0,0,0,0,0,0,0,0,0,0,0,0,0,0,0,0,0,0,
2,2,2,2,2,2,2,2,2,2,2,2,2,2,2,2,2,2,2,2
</data>
 </layer>
 <objectgroup id="3" name="Object">
  <object id="2" name="BR_Corner_Grass" gid="229" x="96" y="256" width="32" height="32"/>
  <object id="3" name="TR_Corner_Grass" gid="230" x="448" y="256" width="32" height="32"/>
  <object id="6" name="Level2" gid="217" x="608" y="288" width="32" height="32"/>
  <object id="8" name="Level2" gid="215" x="0" y="288" width="32" height="32"/>
 </objectgroup>
 <objectgroup id="4" name="Item">
  <object id="10" name="TEST_ITEM" gid="41" x="192" y="288" width="32" height="32"/>
 </objectgroup>
 <objectgroup id="6" name="PlayerSpawn">
  <object id="15" name="PlayerSpawn" gid="9" x="352" y="288" width="32" height="32">
   <properties>
    <property name="TP" value="BRUH"/>
   </properties>
  </object>
 </objectgroup>
 <objectgroup id="8" name="TileCollision">
  <object id="36" gid="29" x="608" y="320" width="32" height="32"/>
  <object id="37" gid="29" x="576" y="320" width="32" height="32"/>
  <object id="38" gid="29" x="544" y="320" width="32" height="32"/>
  <object id="39" gid="29" x="512" y="320" width="32" height="32"/>
  <object id="40" gid="29" x="480" y="320" width="32" height="32"/>
  <object id="41" gid="29" x="448" y="320" width="32" height="32"/>
  <object id="42" gid="29" x="416" y="320" width="32" height="32"/>
  <object id="43" gid="29" x="384" y="320" width="32" height="32"/>
  <object id="44" gid="29" x="352" y="320" width="32" height="32"/>
  <object id="45" gid="29" x="320" y="320" width="32" height="32"/>
  <object id="46" gid="29" x="288" y="320" width="32" height="32"/>
  <object id="47" gid="29" x="256" y="320" width="32" height="32"/>
  <object id="48" gid="29" x="224" y="320" width="32" height="32"/>
  <object id="49" gid="29" x="192" y="320" width="32" height="32"/>
  <object id="50" gid="29" x="160" y="320" width="32" height="32"/>
  <object id="51" gid="29" x="128" y="320" width="32" height="32"/>
  <object id="52" gid="29" x="96" y="320" width="32" height="32"/>
  <object id="53" gid="29" x="64" y="320" width="32" height="32"/>
  <object id="54" gid="29" x="32" y="320" width="32" height="32"/>
  <object id="55" gid="29" x="0" y="320" width="32" height="32"/>
 </objectgroup>
</map>
